img/cont-4.svg

<svg width="125" height="86" viewBox="0 0 125 86" fill="none" xmlns="http://www.w3.org/2000/svg">
<rect width="125" height="86" rx="5" fill="#CCE2F5"/>
<path d="M32.056 58.008H25.816L24.472 61H23.24L28.36 49.8H29.528L34.648 61H33.4L32.056 58.008ZM31.624 57.048L28.936 51.032L26.248 57.048H31.624ZM45.9303 52.584V61H44.8903V54.344L41.4823 59.976H40.9703L37.5623 54.328V61H36.5223V52.584H37.6743L41.2423 58.648L44.8743 52.584H45.9303ZM56.5229 57.144H49.4829C49.5469 58.0187 49.8829 58.728 50.4909 59.272C51.0989 59.8053 51.8669 60.072 52.7949 60.072C53.3175 60.072 53.7975 59.9813 54.2349 59.8C54.6722 59.608 55.0509 59.3307 55.3709 58.968L56.0109 59.704C55.6375 60.152 55.1682 60.4933 54.6029 60.728C54.0482 60.9627 53.4349 61.08 52.7629 61.08C51.8989 61.08 51.1309 60.8987 50.4589 60.536C49.7975 60.1627 49.2802 59.6507 48.9069 59C48.5335 58.3493 48.3469 57.6133 48.3469 56.792C48.3469 55.9707 48.5229 55.2347 48.8749 54.584C49.2375 53.9333 49.7282 53.4267 50.3469 53.064C50.9762 52.7013 51.6802 52.52 52.4589 52.52C53.2375 52.52 53.9362 52.7013 54.5549 53.064C55.1735 53.4267 55.6589 53.9333 56.0109 54.584C56.3629 55.224 56.5389 55.96 56.5389 56.792L56.5229 57.144ZM52.4589 53.496C51.6482 53.496 50.9655 53.7573 50.4109 54.28C49.8669 54.792 49.5575 55.464 49.4829 56.296H55.4509C55.3762 55.464 55.0615 54.792 54.5069 54.28C53.9629 53.7573 53.2802 53.496 52.4589 53.496ZM63.3895 52.52C64.1788 52.52 64.8935 52.7013 65.5335 53.064C66.1735 53.416 66.6748 53.9173 67.0375 54.568C67.4002 55.2187 67.5815 55.96 67.5815 56.792C67.5815 57.6347 67.4002 58.3813 67.0375 59.032C66.6748 59.6827 66.1735 60.1893 65.5335 60.552C64.9042 60.904 64.1895 61.08 63.3895 61.08C62.7068 61.08 62.0882 60.9413 61.5335 60.664C60.9895 60.376 60.5415 59.96 60.1895 59.416V64.104H59.0535V52.584H60.1415V54.248C60.4828 53.6933 60.9308 53.2667 61.4855 52.968C62.0508 52.6693 62.6855 52.52 63.3895 52.52ZM63.3095 60.072C63.8962 60.072 64.4295 59.9387 64.9095 59.672C65.3895 59.3947 65.7628 59.0053 66.0295 58.504C66.3068 58.0027 66.4455 57.432 66.4455 56.792C66.4455 56.152 66.3068 55.5867 66.0295 55.096C65.7628 54.5947 65.3895 54.2053 64.9095 53.928C64.4295 53.6507 63.8962 53.512 63.3095 53.512C62.7122 53.512 62.1735 53.6507 61.6935 53.928C61.2242 54.2053 60.8508 54.5947 60.5735 55.096C60.3068 55.5867 60.1735 56.152 60.1735 56.792C60.1735 57.432 60.3068 58.0027 60.5735 58.504C60.8508 59.0053 61.2242 59.3947 61.6935 59.672C62.1735 59.9387 62.7122 60.072 63.3095 60.072ZM70.0223 52.584H71.1583V59.272L76.7743 52.584H77.7823V61H76.6463V54.312L71.0463 61H70.0223V52.584ZM84.0939 57.256H82.1739V61H81.0379V52.584H82.1739V56.28H84.1099L87.0699 52.584H88.3019L84.9899 56.664L88.5419 61H87.1979L84.0939 57.256ZM93.0745 52.52C94.1732 52.52 95.0158 52.7973 95.6025 53.352C96.1892 53.896 96.4825 54.7067 96.4825 55.784V61H95.3945V59.688C95.1385 60.1253 94.7598 60.4667 94.2585 60.712C93.7678 60.9573 93.1812 61.08 92.4985 61.08C91.5598 61.08 90.8132 60.856 90.2585 60.408C89.7038 59.96 89.4265 59.368 89.4265 58.632C89.4265 57.9173 89.6825 57.3413 90.1945 56.904C90.7172 56.4667 91.5438 56.248 92.6745 56.248H95.3465V55.736C95.3465 55.0107 95.1438 54.4613 94.7385 54.088C94.3332 53.704 93.7412 53.512 92.9625 53.512C92.4292 53.512 91.9172 53.6027 91.4265 53.784C90.9358 53.9547 90.5145 54.1947 90.1625 54.504L89.6505 53.656C90.0772 53.2933 90.5892 53.016 91.1865 52.824C91.7838 52.6213 92.4132 52.52 93.0745 52.52ZM92.6745 60.184C93.3145 60.184 93.8638 60.04 94.3225 59.752C94.7812 59.4533 95.1225 59.0267 95.3465 58.472V57.096H92.7065C91.2665 57.096 90.5465 57.5973 90.5465 58.6C90.5465 59.0907 90.7332 59.48 91.1065 59.768C91.4798 60.0453 92.0025 60.184 92.6745 60.184Z" fill="black"/>
<g clip-path="url(#clip0)">
<path d="M64.1298 35.328H61.8704C61.5178 35.328 61.1884 35.152 60.9929 34.8584L59.0467 31.939H57.3517C57.0719 31.939 56.8038 31.8278 56.6058 31.63L55.7851 30.8094H51.7034C51.4752 30.8094 51.253 30.7352 51.0706 30.5984L46.5516 27.2094C46.3278 27.0416 46.18 26.7917 46.1405 26.5148L45.0108 18.6068C44.9875 18.4448 45.0023 18.2797 45.0542 18.1243L47.3135 11.3463C47.4572 10.9156 47.8601 10.625 48.3141 10.625H66.3891C66.9716 10.625 67.4438 11.0971 67.4438 11.6797V12.8843H69.7781C70.2621 12.8843 70.6839 13.2137 70.8015 13.6833L71.7315 17.403H72.7304L78.07 12.0637C78.2678 11.8659 78.5359 11.7547 78.8157 11.7547H79.9454C80.528 11.7547 81.0001 12.2268 81.0001 12.8094V17.328C81.0001 17.4917 80.9619 17.6532 80.8889 17.7999L78.7407 22.0958V25.236C78.7407 25.5156 78.6295 25.7839 78.4318 25.9817L77.1546 27.2589C76.9395 27.4739 76.906 27.8128 77.0747 28.0658L78.5636 30.2993C78.8424 30.7176 78.7874 31.2746 78.4318 31.63L76.1724 33.8896C75.7607 34.3014 75.0927 34.3014 74.681 33.8896L71.6007 30.8094H68.1708L67.8972 31.3559C67.7187 31.7133 67.3534 31.939 66.9541 31.939H66.0197L65.1303 34.6068C64.9867 35.0374 64.5838 35.328 64.1298 35.328Z" fill="white"/>
</g>
<defs>
<clipPath id="clip0">
<rect width="36" height="36" fill="white" transform="translate(45 5)"/>
</clipPath>
</defs>
</svg>

<svg width="125" height="86" fill="none" xmlns="http://www.w3.org/2000/svg"><rect width="125" height="86" rx="5" fill="#CCE2F5"/><path d="M32.056 58.008h-6.24L24.472 61H23.24l5.12-11.2h1.168l5.12 11.2H33.4l-1.344-2.992zm-.432-.96l-2.688-6.016-2.688 6.016h5.376zm14.306-4.464V61h-1.04v-6.656l-3.408 5.632h-.512l-3.408-5.648V61h-1.04v-8.416h1.152l3.568 6.064 3.632-6.064h1.056zm10.593 4.56h-7.04c.064.875.4 1.584 1.008 2.128.608.533 1.376.8 2.304.8.523 0 1.002-.09 1.44-.272.437-.192.816-.47 1.136-.832l.64.736c-.373.448-.843.79-1.408 1.024a4.676 4.676 0 01-1.84.352c-.864 0-1.632-.181-2.304-.544A4.05 4.05 0 0148.907 59c-.373-.65-.56-1.387-.56-2.208 0-.821.176-1.557.528-2.208a3.955 3.955 0 011.472-1.52 4.153 4.153 0 012.112-.544c.778 0 1.477.181 2.096.544.618.363 1.104.87 1.456 1.52.352.64.528 1.376.528 2.208l-.016.352zm-4.064-3.648c-.81 0-1.494.261-2.048.784-.544.512-.854 1.184-.928 2.016h5.968c-.075-.832-.39-1.504-.944-2.016-.544-.523-1.227-.784-2.048-.784zm10.93-.976c.79 0 1.505.181 2.145.544.64.352 1.14.853 1.503 1.504.363.65.544 1.392.544 2.224 0 .843-.18 1.59-.544 2.24a3.888 3.888 0 01-1.504 1.52c-.629.352-1.344.528-2.144.528a4.092 4.092 0 01-1.856-.416 3.582 3.582 0 01-1.343-1.248v4.688h-1.136v-11.52h1.087v1.664a3.52 3.52 0 011.345-1.28c.565-.299 1.2-.448 1.904-.448zm-.08 7.552c.587 0 1.12-.133 1.6-.4.48-.277.854-.667 1.12-1.168.278-.501.416-1.072.416-1.712 0-.64-.138-1.205-.415-1.696a2.883 2.883 0 00-1.12-1.168 3.14 3.14 0 00-1.6-.416c-.598 0-1.137.139-1.617.416a3.035 3.035 0 00-1.12 1.168c-.266.49-.4 1.056-.4 1.696 0 .64.134 1.21.4 1.712.278.501.651.89 1.12 1.168.48.267 1.02.4 1.617.4zm6.713-7.488h1.136v6.688l5.616-6.688h1.008V61h-1.136v-6.688L71.046 61h-1.024v-8.416zm14.072 4.672h-1.92V61h-1.136v-8.416h1.136v3.696h1.936l2.96-3.696h1.232l-3.312 4.08L88.542 61h-1.344l-3.104-3.744zm8.98-4.736c1.1 0 1.942.277 2.529.832.586.544.88 1.355.88 2.432V61h-1.089v-1.312c-.256.437-.634.779-1.136 1.024-.49.245-1.077.368-1.76.368-.938 0-1.685-.224-2.24-.672-.554-.448-.831-1.04-.831-1.776 0-.715.255-1.29.767-1.728.523-.437 1.35-.656 2.48-.656h2.672v-.512c0-.725-.202-1.275-.608-1.648-.405-.384-.997-.576-1.775-.576-.534 0-1.046.09-1.536.272-.491.17-.913.41-1.265.72l-.512-.848c.427-.363.94-.64 1.536-.832a5.835 5.835 0 011.888-.304zm-.4 7.664c.64 0 1.19-.144 1.648-.432.46-.299.8-.725 1.025-1.28v-1.376h-2.64c-1.44 0-2.16.501-2.16 1.504 0 .49.186.88.56 1.168.373.277.895.416 1.567.416z" fill="#000"/><g clip-path="url(#clip0)"><path d="M64.13 35.328h-2.26c-.352 0-.682-.176-.877-.47l-1.946-2.919h-1.695c-.28 0-.548-.111-.746-.309l-.82-.82h-4.083c-.228 0-.45-.075-.632-.212l-4.52-3.389a1.054 1.054 0 01-.41-.694l-1.13-7.908a1.05 1.05 0 01.043-.483l2.26-6.778c.143-.43.546-.721 1-.721H66.39c.583 0 1.055.472 1.055 1.055v1.204h2.334c.484 0 .906.33 1.023.8l.93 3.719h1l5.339-5.34c.198-.197.466-.308.746-.308h1.13c.582 0 1.054.472 1.054 1.054v4.519c0 .164-.038.325-.111.472l-2.148 4.296v3.14c0 .28-.112.548-.31.746l-1.276 1.277a.64.64 0 00-.08.807l1.489 2.233c.278.419.223.976-.132 1.331l-2.26 2.26a1.055 1.055 0 01-1.491 0l-3.08-3.08h-3.43l-.274.546a1.054 1.054 0 01-.943.583h-.934l-.89 2.668c-.143.43-.546.721-1 .721z" fill="#fff"/></g><defs><clipPath id="clip0"><path fill="#fff" transform="translate(45 5)" d="M0 0h36v36H0z"/></clipPath></defs></svg>
